X:1
T:Sakura
C:Traditional Japanese (Edo period)
M:4/4
L:1/4
Q:1/4=72
K:Amin
A A B d | A A B d | d e f e | B d B A |
d e f e | d B A B | G A E G | A4 |]
